icon-svg/chandelier.svg

<?xml version="1.0" encoding="UTF-8"?>
<!DOCTYPE svg PUBLIC "-//W3C//DTD SVG 1.1//EN" "http://www.w3.org/Graphics/SVG/1.1/DTD/svg11.dtd">
<svg xmlns="http://www.w3.org/2000/svg" xmlns:xlink="http://www.w3.org/1999/xlink" fill="#44739e" version="1.1"  width="24" height="24" viewBox="0 0 24 24">
<path d="m9 2.0004v1c1.701e-4 0.53581 0.57194 1.0309 1.5 1.2988 0.23509 0.067489 0.48738 0.11874 0.75 0.15234l-2e-3 5.6344c0.24619-0.0556 0.49959-0.08442 0.75195-0.08594 0.2523 8.81e-4 0.50376 0.02904 0.75 0.08398v-5.6324c0.26262-0.033604 0.51491-0.084851 0.75-0.15234 0.92806-0.26791 1.4998-0.76299 1.5-1.2988v-1h-6zm3 8.9996c-1.3807 0-2.5 1.1193-2.5 2.5s1.1193 2.5 2.5 2.5 2.5-1.1193 2.5-2.5-1.1193-2.5-2.5-2.5zm-7.5 2c-1.3807 0-2.5 1.1193-2.5 2.5s1.1193 2.5 2.5 2.5 2.5-1.1193 2.5-2.5-1.1193-2.5-2.5-2.5zm15 0c-1.3807 0-2.5 1.1193-2.5 2.5s1.1193 2.5 2.5 2.5 2.5-1.1193 2.5-2.5-1.1193-2.5-2.5-2.5zm-8.2949 3.9043c-0.21486 1.5381-1.5198 2.7266-3.1172 2.7266-0.80396 0-1.5886-0.37521-2.1797-0.93164-0.44348 0.19678-0.92303 0.29921-1.4082 0.30078-0.057347-0.0012-0.11466-0.0038-0.17188-0.0078 0.92479 1.2061 2.3395 2.1387 3.7598 2.1387 1.2597 0 2.3252-0.59164 3.1621-1.4082v1.5273c0 0.41421 0.33579 0.75 0.75 0.75 0.39939-5.51e-4 0.72829-0.3511 0.74805-0.75v-1.5273c0.83704 0.81754 1.9035 1.4082 3.1641 1.4082 1.419 0 2.831-0.93211 3.7559-2.1367-0.05593 0.0033-0.11194 0.0053-0.16797 0.0059-0.4857-6.87e-4 -0.96593-0.10245-1.4102-0.29883-0.59078 0.55572-1.3737 0.92969-2.1777 0.92969-1.5974 0-2.9022-1.1885-3.1172-2.7266-0.26044 0.06216-0.52716 0.09431-0.79492 0.0957-0.26776-0.0014-0.53448-0.0335-0.79492-0.0957z"/>
</svg>

<svg xmlns="http://www.w3.org/2000/svg" fill="#44739e" viewBox="0 0 24 24"><path d="M9 2.0004v1c.0002.5358.572 1.0309 1.5 1.2988.235.0675.4874.1187.75.1523l-.002 5.6344A3.52 3.52 0 0 1 12 10c.2523.0009.5037.029.75.084V4.4516a5.05 5.05 0 0 0 .75-.1524c.928-.2679 1.4998-.763 1.5-1.2988v-1zM12 11c-1.3807 0-2.5 1.1193-2.5 2.5S10.6193 16 12 16s2.5-1.1193 2.5-2.5S13.3807 11 12 11m-7.5 2C3.1193 13 2 14.1193 2 15.5S3.1193 18 4.5 18 7 16.8807 7 15.5 5.8807 13 4.5 13m15 0c-1.3807 0-2.5 1.1193-2.5 2.5s1.1193 2.5 2.5 2.5 2.5-1.1193 2.5-2.5-1.1193-2.5-2.5-2.5m-8.2949 3.9043c-.2149 1.5381-1.5198 2.7266-3.1172 2.7266-.804 0-1.5886-.3752-2.1797-.9316A3.5 3.5 0 0 1 4.5 19a3.5 3.5 0 0 1-.1719-.0078c.9248 1.2061 2.3395 2.1387 3.7598 2.1387 1.2597 0 2.3252-.5916 3.1621-1.4082V21.25A.75.75 0 0 0 12 22c.3994-.0005.7283-.351.748-.75v-1.5273c.8371.8176 1.9036 1.4082 3.1642 1.4082 1.419 0 2.831-.932 3.7559-2.1367a3.5 3.5 0 0 1-.168.006 3.5 3.5 0 0 1-1.4102-.2989c-.5908.5557-1.3737.9297-2.1777.9297-1.5974 0-2.9022-1.1885-3.1172-2.7266a3.5 3.5 0 0 1-.795.0957 3.5 3.5 0 0 1-.7948-.0957z"/></svg>
